X:1701
L:1/8
M:4/4
K:G
 B | G>DD<E G>ABd | c>AB>G{F} E EA | G<DD>E G>ABe | d<BA>B G2 G :| g | (e/f/g) d>g B>G | 
 c>AB>G{F} E2 Eg | (e/f/g) d<g B>gd>B | c>Ad>B G2 Gg | e<gd<b c<aB<g | c>AB>G{F} E2 (E/c/B/A/) | 
 G<DD>E G>Be | d<BA>B G2 G ||

